svg/black/icn.svg

<svg xmlns="http://www.w3.org/2000/svg" width="32" height="32" viewBox="0 0 32 32">
  <path fill-rule="evenodd" d="M16,32 C7.163444,32 0,24.836556 0,16 C0,7.163444 7.163444,0 16,0 C24.836556,0 32,7.163444 32,16 C32,24.836556 24.836556,32 16,32 Z M20.8333333,7 L20.8333333,25 L23.5,25 L23.5,7 L20.8333333,7 Z M16.3888889,16 L16.3888889,25 L19.0555556,25 L19.0555556,16 L16.3888889,16 Z M11.9444444,11.5 L11.9444444,25 L14.6111111,25 L14.6111111,11.5 L11.9444444,11.5 Z M7.5,20.5 L7.5,25 L10.1666667,25 L10.1666667,20.5 L7.5,20.5 Z"/>
</svg>

<svg xmlns="http://www.w3.org/2000/svg" width="32" height="32"><path fill-rule="evenodd" d="M16 32C7.163 32 0 24.837 0 16S7.163 0 16 0s16 7.163 16 16-7.163 16-16 16zm4.833-25v18H23.5V7h-2.667zm-4.444 9v9h2.667v-9h-2.667zm-4.445-4.5V25h2.667V11.5h-2.667zm-4.444 9V25h2.667v-4.5H7.5z"/></svg>
